X: 92
T: Jin zhu ri ma Rolgarm-a            (M.S  1183)
%%abc-version 2.0
%%abcx-abcm2ps-target-version 5.9.1 (29 Sep 2008)
%%abc-creator hum2abc beta
%%abcx-conversion-date 2013/10/02 07:44:27
%%abc-edited-by Helmut Schaffrath
%%humdrum-veritas 3014418302
%%humdrum-veritas-data 970571193
%%continueall 1
%%barnumbers 0
L: 1/4
M: 4/4
K: C
EAAG/ A/ [I:setbarnb 1]| 
EAAA | 
Aeed/ e/ | 
c>Adg | 
e4 | 
Aeed/ g/ | 
ee/ d/cA | 
A>cde | 
eEG3/c/ | 
A4 |]  



